Dominus_Dark_Funeral/scalable/apps/xfce4-panel.svg

<?xml version="1.0" encoding="UTF-8" standalone="no"?><svg xmlns:dc="http://purl.org/dc/elements/1.1/" xmlns:cc="http://creativecommons.org/ns#" xmlns:rdf="http://www.w3.org/1999/02/22-rdf-syntax-ns#" xmlns="http://www.w3.org/2000/svg" xmlns:xlink="http://www.w3.org/1999/xlink" width="48" height="48" viewBox="0 0 12.7 12.7"><metadata><rdf:RDF><cc:Work><dc:format>image/svg+xml</dc:format><dc:type rdf:resource="http://purl.org/dc/dcmitype/StillImage"/><dc:title/></cc:Work></rdf:RDF></metadata><defs><linearGradient id="c"><stop offset="0"/><stop offset="1" stop-opacity="0"/></linearGradient><linearGradient id="d"><stop offset="0"/><stop offset="1" stop-opacity="0"/></linearGradient><linearGradient id="b"><stop offset="0" stop-color="#7c6f91"/><stop offset=".21" stop-color="#c4b7c8"/><stop offset=".36" stop-color="#453748"/><stop offset=".42" stop-color="#8a6f91"/><stop offset=".59" stop-color="#c4b7c8"/><stop offset="1" stop-color="#e2dbe3"/></linearGradient><linearGradient id="a"><stop offset="0"/><stop offset="1" stop-opacity="0"/></linearGradient><linearGradient xlink:href="#b" id="e" x1="6.24" y1="-.12" x2="6.24" y2="13.41" gradientUnits="userSpaceOnUse"/><linearGradient xlink:href="#c" id="g" x1="8.48" y1="6.49" x2="9.98" y2="7.87" gradientUnits="userSpaceOnUse"/><linearGradient xlink:href="#d" id="f" gradientUnits="userSpaceOnUse" x1="3.71" y1="5.38" x2="9.82" y2="11.19"/></defs><path d="M6.35.1C4.81.1 3.57.38 2.66.96A3.67 3.67 0 0 0 1 4.22c0 1.91 1.54 4.47 2.01 5.2.54.85 1.13 1.61 1.65 2.16.68.7 1.21 1.03 1.69 1.03s1.01-.33 1.69-1.03a15.2 15.2 0 0 0 1.65-2.15c.47-.74 2-3.3 2-5.21 0-1.42-.57-2.54-1.65-3.25A6.75 6.75 0 0 0 6.35.1z" fill="url(#e)"/><path d="M7.29 12.22a5 5 0 0 0 .75-.64 15.2 15.2 0 0 0 1.65-2.15l.37-.68-1.03-1.22H8.8L7.78 6.5l-.17.58-.41-.42.12.97-.7.33-1.41-.33-.44-.31-.7-.53-.42-.18-.4-.18-.28-.14L5.1 8.43l-.7.71.27.24-.02.21z" opacity=".6" fill="url(#f)"/><path d="M1.37 2.42a3.67 3.67 0 0 0-.3.91 3.67 3.67 0 0 0-.07.89c0 .17.02.38.04.58h10.6a4.53 4.53 0 0 0-.06-1.59 3.74 3.74 0 0 0-.28-.79z" color="#000" fill="#d4fbc1"/><path d="M2.13 3.22h.8v.8h-.8zM3.46 3.22h.79v.8h-.8zM4.78 3.22h.8v.8h-.8zM7.95 3.48h2.65v.27H7.95z" color="#000" fill="#333"/><path d="M6.35.1C4.81.1 3.57.38 2.66.96A3.67 3.67 0 0 0 1 4.22c0 1.91 1.54 4.47 2.01 5.2.54.85 1.13 1.61 1.65 2.16.68.7 1.21 1.03 1.69 1.03s1.01-.33 1.69-1.03a15.2 15.2 0 0 0 1.65-2.15c.47-.74 2-3.3 2-5.21 0-1.42-.57-2.54-1.65-3.25A6.75 6.75 0 0 0 6.35.1zm0 .03C6.91.15 7.44.2 7.9.31a5.82 5.82 0 0 1 1.6.66 3.65 3.65 0 0 1 1.24 1.36c.14.27.25.57.32.88a4.61 4.61 0 0 1-.14 2.53c-.15.52-.36 1.04-.58 1.52-.44.97-.95 1.8-1.18 2.17a15.2 15.2 0 0 1-1.65 2.15 4.9 4.9 0 0 1-.92.78.96.96 0 0 1-.24.1.96.96 0 0 1-.24-.1 4.76 4.76 0 0 1-.92-.78 14.41 14.41 0 0 1-1.65-2.15 19.2 19.2 0 0 1-1.18-2.17c-.22-.48-.43-1-.58-1.52a4.6 4.6 0 0 1-.14-2.52 3.73 3.73 0 0 1 .84-1.64 3.65 3.65 0 0 1 1.45-1A6.83 6.83 0 0 1 6.35.13z" opacity=".2"/><path d="M8.84 7.18l.05-.16.17.16.13-.26L10.27 8l-.24.37z" opacity=".46" fill="url(#g)"/><path d="M2.97 6.28v.01c.02.04.24.17.56.33a4.72 4.72 0 0 1 1.36.99l-.06.12-.12.24a1.2 1.2 0 0 0-.07.5v.33l-.07.07c-.12.12-.17.18-.17.24 0 .07.04.09.17.04l.13-.04c.04.03.03.09-.02.27a.6.6 0 0 0-.04.18c0 .02.01.03.03.03 0 0 .12-.07.24-.18l.27-.21c.05-.04.06-.04.34.02a6.52 6.52 0 0 0 1.45.05l.12-.01.25.12c.32.14.5.2.55.19.1-.02.07-.15-.1-.36-.11-.16-.09-.17.15-.1s.31.09.34.05c.03-.04 0-.12-.12-.27-.22-.26-.22-.32.07-.45.37-.17.67-.34.8-.45.1-.08.12-.12.12-.18 0-.29-.27-.48-.96-.64a2.23 2.23 0 0 1-.26-.07l-.04-.18c0-.31-.07-.45-.2-.48-.06 0-.09 0-.13.05-.09.08-.13.24-.08.4.05.17.05.2 0 .2l-.12-.17c-.12-.28-.2-.34-.31-.29-.1.05-.14.27-.1.46.03.07.02.1-.07.24l-.1.17H6.6c-.12 0-.3-.03-.6-.07-.54-.12-.62-.12-.8-.04-.07.04-.14.06-.16.05l-.22-.2a3.03 3.03 0 0 0-1.15-.67 6.5 6.5 0 0 1-.7-.29zm6.22.64l-.03.01a1.07 1.07 0 0 0-.17.34c0 .05.06-.02.16-.2.06-.1.07-.15.04-.15zm-.3.1c-.02 0-.05.07-.05.14s.04.02.06-.07v-.06zm-.85.35c.03 0 .07.03.06.12 0 .06-.01.07-.06.07a.1.1 0 0 1-.06-.17.12.12 0 0 1 .06-.02zm-.26.16s.03 0 .06.06l.11.08c.03 0 .06.02.06.03l-.08.01c-.06 0-.07 0-.12-.07-.03-.06-.04-.1-.03-.1zm.52.41c.01 0 .03 0 .03.03 0 .02-.05.05-.12.07-.2.08-.22.04-.03-.06a.43.43 0 0 1 .12-.04zm.09.15c.02 0 .02.06-.03.1-.07.07-.17.11-.19.1 0-.03.12-.17.18-.2z" fill="#333"/></svg>

<?xml version="1.0" encoding="UTF-8" standalone="no"?>
<svg
   xmlns:dc="http://purl.org/dc/elements/1.1/"
   xmlns:cc="http://creativecommons.org/ns#"
   xmlns:rdf="http://www.w3.org/1999/02/22-rdf-syntax-ns#"
   xmlns:svg="http://www.w3.org/2000/svg"
   xmlns="http://www.w3.org/2000/svg"
   xmlns:xlink="http://www.w3.org/1999/xlink"
   xmlns:sodipodi="http://sodipodi.sourceforge.net/DTD/sodipodi-0.dtd"
   xmlns:inkscape="http://www.inkscape.org/namespaces/inkscape"
   width="48"
   height="48"
   viewBox="0 0 12.7 12.7"
   version="1.1"
   id="svg51"
   sodipodi:docname="xfce4-panel.svg"
   inkscape:version="0.92.4 (5da689c313, 2019-01-14)">
  <sodipodi:namedview
     pagecolor="#ffffff"
     bordercolor="#666666"
     borderopacity="1"
     objecttolerance="10"
     gridtolerance="10"
     guidetolerance="10"
     inkscape:pageopacity="0"
     inkscape:pageshadow="2"
     inkscape:window-width="1112"
     inkscape:window-height="480"
     id="namedview53"
     showgrid="false"
     inkscape:zoom="4.9166667"
     inkscape:cx="2.1355932"
     inkscape:cy="24"
     inkscape:window-x="0"
     inkscape:window-y="25"
     inkscape:window-maximized="0"
     inkscape:current-layer="svg51" />
  <metadata
     id="metadata2">
    <rdf:RDF>
      <cc:Work>
        <dc:format>image/svg+xml</dc:format>
        <dc:type
           rdf:resource="http://purl.org/dc/dcmitype/StillImage" />
        <dc:title></dc:title>
      </cc:Work>
    </rdf:RDF>
  </metadata>
  <defs
     id="defs35">
    <linearGradient
       id="c">
      <stop
         offset="0"
         id="stop4" />
      <stop
         offset="1"
         stop-opacity="0"
         id="stop6" />
    </linearGradient>
    <linearGradient
       id="d">
      <stop
         offset="0"
         id="stop9" />
      <stop
         offset="1"
         stop-opacity="0"
         id="stop11" />
    </linearGradient>
    <linearGradient
       id="b">
      <stop
         offset="0"
         stop-color="#7c6f91"
         id="stop14" />
      <stop
         offset=".21"
         stop-color="#c4b7c8"
         id="stop16" />
      <stop
         offset=".36"
         stop-color="#453748"
         id="stop18" />
      <stop
         offset=".42"
         stop-color="#8a6f91"
         id="stop20" />
      <stop
         offset=".59"
         stop-color="#c4b7c8"
         id="stop22" />
      <stop
         offset="1"
         stop-color="#e2dbe3"
         id="stop24" />
    </linearGradient>
    <linearGradient
       id="a">
      <stop
         offset="0"
         id="stop27" />
      <stop
         offset="1"
         stop-opacity="0"
         id="stop29" />
    </linearGradient>
    <linearGradient
       xlink:href="#b"
       id="e"
       x1="6.24"
       y1="-.12"
       x2="6.24"
       y2="13.41"
       gradientUnits="userSpaceOnUse" />
    <linearGradient
       xlink:href="#c"
       id="g"
       x1="8.48"
       y1="6.49"
       x2="9.98"
       y2="7.87"
       gradientUnits="userSpaceOnUse" />
    <linearGradient
       xlink:href="#d"
       id="f"
       gradientUnits="userSpaceOnUse"
       x1="3.71"
       y1="5.38"
       x2="9.82"
       y2="11.19" />
  </defs>
  <path
     d="M 6.35,0.1 C 4.81,0.1 3.57,0.38 2.66,0.96 A 3.67,3.67 0 0 0 1,4.22 c 0,1.91 1.54,4.47 2.01,5.2 0.54,0.85 1.13,1.61 1.65,2.16 0.68,0.7 1.21,1.03 1.69,1.03 0.48,0 1.01,-0.33 1.69,-1.03 A 15.2,15.2 0 0 0 9.69,9.43 c 0.47,-0.74 2,-3.3 2,-5.21 0,-1.42 -0.57,-2.54 -1.65,-3.25 A 6.75,6.75 0 0 0 6.35,0.1 Z"
     id="path37"
     style="fill:url(#e)"
     inkscape:connector-curvature="0" />
  <path
     d="M 7.29,12.22 A 5,5 0 0 0 8.04,11.58 15.2,15.2 0 0 0 9.69,9.43 L 10.06,8.75 9.03,7.53 H 8.8 L 7.78,6.5 7.61,7.08 7.2,6.66 7.32,7.63 6.62,7.96 5.21,7.63 4.77,7.32 4.07,6.79 3.65,6.61 3.25,6.43 2.97,6.29 5.1,8.43 4.4,9.14 4.67,9.38 4.65,9.59 Z"
     id="path39"
     style="opacity:0.6;fill:url(#f)"
     inkscape:connector-curvature="0" />
  <path
     d="M 1.37,2.42 A 3.67,3.67 0 0 0 1.07,3.33 3.67,3.67 0 0 0 1,4.22 C 1,4.39 1.02,4.6 1.04,4.8 h 10.6 A 4.53,4.53 0 0 0 11.58,3.21 3.74,3.74 0 0 0 11.3,2.42 Z"
     id="path41"
     inkscape:connector-curvature="0"
     style="color:#000000;fill:#d4fbc1" />
  <path
     d="m 2.13,3.22 h 0.8 v 0.8 h -0.8 z m 1.33,0 h 0.79 v 0.8 h -0.8 z m 1.32,0 h 0.8 v 0.8 H 4.78 Z M 7.95,3.48 H 10.6 V 3.75 H 7.95 Z"
     id="path43"
     inkscape:connector-curvature="0"
     style="color:#000000;fill:#333333" />
  <path
     d="M 6.35,0.1 C 4.81,0.1 3.57,0.38 2.66,0.96 A 3.67,3.67 0 0 0 1,4.22 c 0,1.91 1.54,4.47 2.01,5.2 0.54,0.85 1.13,1.61 1.65,2.16 0.68,0.7 1.21,1.03 1.69,1.03 0.48,0 1.01,-0.33 1.69,-1.03 A 15.2,15.2 0 0 0 9.69,9.43 c 0.47,-0.74 2,-3.3 2,-5.21 0,-1.42 -0.57,-2.54 -1.65,-3.25 A 6.75,6.75 0 0 0 6.35,0.1 Z m 0,0.03 C 6.91,0.15 7.44,0.2 7.9,0.31 a 5.82,5.82 0 0 1 1.6,0.66 3.65,3.65 0 0 1 1.24,1.36 c 0.14,0.27 0.25,0.57 0.32,0.88 A 4.61,4.61 0 0 1 10.92,5.74 C 10.77,6.26 10.56,6.78 10.34,7.26 9.9,8.23 9.39,9.06 9.16,9.43 A 15.2,15.2 0 0 1 7.51,11.58 4.9,4.9 0 0 1 6.59,12.36 0.96,0.96 0 0 1 6.35,12.46 0.96,0.96 0 0 1 6.11,12.36 4.76,4.76 0 0 1 5.19,11.58 14.41,14.41 0 0 1 3.54,9.43 19.2,19.2 0 0 1 2.36,7.26 C 2.14,6.78 1.93,6.26 1.78,5.74 A 4.6,4.6 0 0 1 1.64,3.22 3.73,3.73 0 0 1 2.48,1.58 3.65,3.65 0 0 1 3.93,0.58 6.83,6.83 0 0 1 6.35,0.13 Z"
     id="path45"
     inkscape:connector-curvature="0"
     style="opacity:0.2" />
  <path
     d="M 8.84,7.18 8.89,7.02 9.06,7.18 9.19,6.92 10.27,8 10.03,8.37 Z"
     id="path47"
     style="opacity:0.46000001;fill:url(#g)"
     inkscape:connector-curvature="0" />
  <path
     d="M 2.97,6.28 V 6.29 C 2.99,6.33 3.21,6.46 3.53,6.62 A 4.72,4.72 0 0 1 4.89,7.61 L 4.83,7.73 4.71,7.97 A 1.2,1.2 0 0 0 4.64,8.47 V 8.8 L 4.57,8.87 C 4.45,8.99 4.4,9.05 4.4,9.11 4.4,9.18 4.44,9.2 4.57,9.15 L 4.7,9.11 C 4.74,9.14 4.73,9.2 4.68,9.38 A 0.6,0.6 0 0 0 4.64,9.56 c 0,0.02 0.01,0.03 0.03,0.03 0,0 0.12,-0.07 0.24,-0.18 L 5.18,9.2 C 5.23,9.16 5.24,9.16 5.52,9.22 A 6.52,6.52 0 0 0 6.97,9.27 L 7.09,9.26 7.34,9.38 C 7.66,9.52 7.84,9.58 7.89,9.57 7.99,9.55 7.96,9.42 7.79,9.21 7.68,9.05 7.7,9.04 7.94,9.11 8.18,9.18 8.25,9.2 8.28,9.16 8.31,9.12 8.28,9.04 8.16,8.89 7.94,8.63 7.94,8.57 8.23,8.44 8.6,8.27 8.9,8.1 9.03,7.99 9.13,7.91 9.15,7.87 9.15,7.81 9.15,7.52 8.88,7.33 8.19,7.17 A 2.23,2.23 0 0 1 7.93,7.1 L 7.89,6.92 c 0,-0.31 -0.07,-0.45 -0.2,-0.48 -0.06,0 -0.09,0 -0.13,0.05 -0.09,0.08 -0.13,0.24 -0.08,0.4 0.05,0.17 0.05,0.2 0,0.2 L 7.36,6.92 C 7.24,6.64 7.16,6.58 7.05,6.63 6.95,6.68 6.91,6.9 6.95,7.09 6.98,7.16 6.97,7.19 6.88,7.33 L 6.78,7.5 H 6.6 C 6.48,7.5 6.3,7.47 6,7.43 5.46,7.31 5.38,7.31 5.2,7.39 5.13,7.43 5.06,7.45 5.04,7.44 L 4.82,7.24 A 3.03,3.03 0 0 0 3.67,6.57 6.5,6.5 0 0 1 2.97,6.28 Z M 9.19,6.92 9.16,6.93 A 1.07,1.07 0 0 0 8.99,7.27 c 0,0.05 0.06,-0.02 0.16,-0.2 0.06,-0.1 0.07,-0.15 0.04,-0.15 z m -0.3,0.1 c -0.02,0 -0.05,0.07 -0.05,0.14 0,0.07 0.04,0.02 0.06,-0.07 V 7.03 Z M 8.04,7.37 c 0.03,0 0.07,0.03 0.06,0.12 0,0.06 -0.01,0.07 -0.06,0.07 A 0.1,0.1 0 0 1 7.98,7.39 0.12,0.12 0 0 1 8.04,7.37 Z M 7.78,7.53 c 0,0 0.03,0 0.06,0.06 l 0.11,0.08 c 0.03,0 0.06,0.02 0.06,0.03 L 7.93,7.71 C 7.87,7.71 7.86,7.71 7.81,7.64 7.78,7.58 7.77,7.54 7.78,7.54 Z M 8.3,7.94 c 0.01,0 0.03,0 0.03,0.03 0,0.02 -0.05,0.05 -0.12,0.07 C 8.01,8.12 7.99,8.08 8.18,7.98 A 0.43,0.43 0 0 1 8.3,7.94 Z m 0.09,0.15 c 0.02,0 0.02,0.06 -0.03,0.1 -0.07,0.07 -0.17,0.11 -0.19,0.1 0,-0.03 0.12,-0.17 0.18,-0.2 z"
     id="path49"
     inkscape:connector-curvature="0"
     style="fill:#333333" />
</svg>
